icons/src/fluent/svg/arrow_circle_left_24_regular.svg

<svg width="24" height="24" viewBox="0 0 24 24" fill="none" xmlns="http://www.w3.org/2000/svg">
<path d="M12.2801 16.5307L12.3527 16.4466C12.5706 16.153 12.5464 15.7363 12.2801 15.47L9.56078 12.7507L16.2505 12.7504L16.3523 12.7435C16.7183 12.6939 17.0005 12.3801 17.0005 12.0004L16.9936 11.8986C16.944 11.5325 16.6302 11.2504 16.2505 11.2504L9.55878 11.2507L12.2807 8.52997L12.3534 8.44587C12.5713 8.1523 12.5471 7.73563 12.2809 7.46931C11.9881 7.17637 11.5132 7.17628 11.2203 7.46911L7.21873 11.4691L7.14609 11.5532C6.92816 11.8468 6.95233 12.2636 7.21863 12.5299L11.2195 16.5307L11.3036 16.6033C11.5972 16.8212 12.0138 16.797 12.2801 16.5307ZM12 2C6.47715 2 2 6.47715 2 12C2 17.5228 6.47715 22 12 22C17.5228 22 22 17.5228 22 12C22 6.47715 17.5228 2 12 2ZM12 20.5C7.30558 20.5 3.5 16.6944 3.5 12C3.5 7.30558 7.30558 3.5 12 3.5C16.6944 3.5 20.5 7.30558 20.5 12C20.5 16.6944 16.6944 20.5 12 20.5Z" fill="#212121"/>
</svg>

<svg width="24" height="24" fill="none" viewBox="0 0 24 24" xmlns="http://www.w3.org/2000/svg"><path d="m12.28 16.532.073-.084a.75.75 0 0 0-.073-.977l-2.72-2.72h6.69l.102-.006A.75.75 0 0 0 17 12l-.006-.101a.75.75 0 0 0-.744-.649H9.56l2.722-2.72.072-.084a.75.75 0 0 0-1.133-.977l-4.001 4-.073.084a.75.75 0 0 0 .073.977l4 4 .085.073a.75.75 0 0 0 .976-.072ZM12 2c-5.523 0-10 4.477-10 10s4.477 10 10 10 10-4.477 10-10-4.477-10-10-10Zm0 18.5a8.5 8.5 0 1 1 0-17 8.5 8.5 0 0 1 0 17Z" fill="#212121"/></svg>
